app/assets/images/loader-spinner.svg

<svg height="200" viewBox="0 0 200 200" width="200" xmlns="http://www.w3.org/2000/svg"><g fill="none" fill-rule="evenodd"><path d="m100 0v13.0000106c-.0149985-.0000068-.0299979-.0000106-.0449982-.0000106-48.0239214 0-86.9550018 38.9310804-86.9550018 86.9550018 0 48.0239212 38.9310804 86.9550022 86.9550018 86.9550022 48.0089212 0 86.9306812-38.906764 86.9549902-86.910004h13.090008c0 55.228475-44.771525 100-100 100s-100-44.771525-100-100 44.771525-100 100-100z" fill="#e5e5e5"/><path d="m0 100h13.0000106zm100 86.909993v13.090007zm100-86.909993h-13.090007c.000007-.0149985.000011-.0299979.000011-.0449982 0-48.0089211-38.906764-86.9306807-86.910004-86.9549904v-13.0000114c55.228475 0 100 44.771525 100 100z" fill="#367c42"/></g></svg>

<?xml version="1.0" encoding="UTF-8"?>
<svg width="200px" height="200px" viewBox="0 0 200 200" version="1.1" xmlns="http://www.w3.org/2000/svg" xmlns:xlink="http://www.w3.org/1999/xlink">
    <title>loader-spinner</title>
    <g id="Page-1" stroke="none" stroke-width="1" fill="none" fill-rule="evenodd">
        <g id="loader-spinner" fill-rule="nonzero">
            <path d="M100,1.42108547e-14 L100,13.0000106 C99.9850015,13 99.9700021,13 99.9550018,13 C51.9310804,13 13,51.9310804 13,99.9550018 C13,147.978923 51.9310804,186.910004 99.9550018,186.910004 C147.963923,186.910004 186.885683,148.00324 186.909992,100 L200,100 C200,155.228475 155.228475,200 100,200 C44.771525,200 0,155.228475 0,100 C0,44.771525 44.771525,1.42108547e-14 100,1.42108547e-14 Z" id="Path" fill="#E5E5E5"></path>
            <path d="M0,100 L13.0000106,100 L0,100 Z M100,186.909993 L100,200 L100,186.909993 Z M200,100 L186.909993,100 C186.91,99.9850015 186.910004,99.9700021 186.910004,99.9550018 C186.910004,51.9460807 148.00324,13.0243211 100,13.0000114 L100,0 C155.228475,0 200,44.771525 200,100 Z" id="Shape" fill="#005EB8"></path>
        </g>
    </g>
</svg>
